X:1470
T:Bimid ag ol is a' pogadh na mban
M:6/8
L:1/8
K:G Major
F|DGG B3|cBc d3|DGA B2d|cAG AGF|!
DGG B3|cBc def|gbg afd|cAG G2:|!
D|GBd g3|gfd =f^ff|GBd g3|gfd cAG|!
GBd g3|gag f2g|abg afd|cAG G2:|!


